src/assets/outline/GpsSlash.svg

<svg width="24" height="24" viewBox="0 0 24 24"  xmlns="http://www.w3.org/2000/svg">
<path d="M12 20.2498C10.85 20.2498 9.74002 20.0198 8.70002 19.5598C8.32002 19.3898 8.15002 18.9498 8.31002 18.5698C8.48002 18.1898 8.92002 18.0198 9.30002 18.1798C10.15 18.5498 11.06 18.7398 12 18.7398C15.72 18.7398 18.75 15.7098 18.75 11.9898C18.75 11.0498 18.56 10.1398 18.19 9.28976C18.02 8.90976 18.2 8.46976 18.58 8.29976C18.96 8.13976 19.4 8.30976 19.57 8.68976C20.03 9.72976 20.26 10.8398 20.26 11.9898C20.25 16.5498 16.55 20.2498 12 20.2498Z" />
<path d="M6.58 17.94C6.38 17.94 6.19 17.86 6.04 17.71C4.56 16.16 3.75 14.14 3.75 12C3.75 7.45 7.45 3.75 12 3.75C14.15 3.75 16.18 4.57 17.73 6.06C18.03 6.35 18.04 6.82 17.75 7.12C17.46 7.42 16.99 7.43 16.69 7.14C15.42 5.92 13.76 5.25 12 5.25C8.28 5.25 5.25 8.28 5.25 12C5.25 13.75 5.92 15.41 7.13 16.67C7.42 16.97 7.41 17.44 7.11 17.73C6.96 17.87 6.77 17.94 6.58 17.94Z" />
<path d="M12 4.75C11.59 4.75 11.25 4.41 11.25 4V2C11.25 1.59 11.59 1.25 12 1.25C12.41 1.25 12.75 1.59 12.75 2V4C12.75 4.41 12.41 4.75 12 4.75Z" />
<path d="M4 12.75H2C1.59 12.75 1.25 12.41 1.25 12C1.25 11.59 1.59 11.25 2 11.25H4C4.41 11.25 4.75 11.59 4.75 12C4.75 12.41 4.41 12.75 4 12.75Z" />
<path d="M12 22.75C11.59 22.75 11.25 22.41 11.25 22V20C11.25 19.59 11.59 19.25 12 19.25C12.41 19.25 12.75 19.59 12.75 20V22C12.75 22.41 12.41 22.75 12 22.75Z" />
<path d="M22 12.75H20C19.59 12.75 19.25 12.41 19.25 12C19.25 11.59 19.59 11.25 20 11.25H22C22.41 11.25 22.75 11.59 22.75 12C22.75 12.41 22.41 12.75 22 12.75Z" />
<path d="M9.88 14.87C9.69 14.87 9.5 14.8 9.35 14.65C8.64 13.94 8.25 13 8.25 12C8.25 9.93 9.93 8.25 12 8.25C13 8.25 13.94 8.64 14.65 9.35C14.94 9.64 14.94 10.12 14.65 10.41L10.41 14.65C10.26 14.8 10.07 14.87 9.88 14.87ZM12 9.75C10.76 9.75 9.75 10.76 9.75 12C9.75 12.34 9.83 12.67 9.97 12.97L12.97 9.97C12.67 9.83 12.34 9.75 12 9.75Z" />
<path d="M1.99994 22.7499C1.80994 22.7499 1.61994 22.6799 1.46994 22.5299C1.17994 22.2399 1.17994 21.7599 1.46994 21.4699L21.4699 1.46994C21.7599 1.17994 22.2399 1.17994 22.5299 1.46994C22.8199 1.75994 22.8199 2.23994 22.5299 2.52994L2.52994 22.5299C2.37994 22.6799 2.18994 22.7499 1.99994 22.7499Z" />
</svg>

<?xml version="1.0" encoding="UTF-8"?>
<svg width="24" height="24" viewBox="0 0 24 24" xmlns="http://www.w3.org/2000/svg">
 <path d="m12 20.25c-1.15 0-2.26-0.23-3.3-0.69-0.38-0.17-0.55-0.61-0.39-0.99 0.17-0.38 0.61-0.55 0.99-0.39 0.84998 0.37 1.76 0.56 2.7 0.56 3.72 0 6.75-3.03 6.75-6.75 0-0.94-0.19-1.85-0.56-2.7-0.17-0.38 0.01-0.82 0.39-0.99 0.38-0.16 0.82 0.01 0.99 0.39 0.46 1.04 0.69 2.15 0.69 3.3-0.01 4.56-3.71 8.26-8.26 8.26z"/>
 <path d="m6.58 17.94c-0.2 0-0.39-0.08-0.54-0.23-1.48-1.55-2.29-3.57-2.29-5.71 0-4.55 3.7-8.25 8.25-8.25 2.15 0 4.18 0.82 5.73 2.31 0.3 0.29 0.31 0.76 0.02 1.06s-0.76 0.31-1.06 0.02c-1.27-1.22-2.93-1.89-4.69-1.89-3.72 0-6.75 3.03-6.75 6.75 0 1.75 0.67 3.41 1.88 4.67 0.29 0.3 0.28 0.77-0.02 1.06-0.15 0.14-0.34 0.21-0.53 0.21z"/>
 <path d="m12 4.75c-0.41 0-0.75-0.34-0.75-0.75v-2c0-0.41 0.34-0.75 0.75-0.75s0.75 0.34 0.75 0.75v2c0 0.41-0.34 0.75-0.75 0.75z"/>
 <path d="m4 12.75h-2c-0.41 0-0.75-0.34-0.75-0.75s0.34-0.75 0.75-0.75h2c0.41 0 0.75 0.34 0.75 0.75s-0.34 0.75-0.75 0.75z"/>
 <path d="m12 22.75c-0.41 0-0.75-0.34-0.75-0.75v-2c0-0.41 0.34-0.75 0.75-0.75s0.75 0.34 0.75 0.75v2c0 0.41-0.34 0.75-0.75 0.75z"/>
 <path d="m22 12.75h-2c-0.41 0-0.75-0.34-0.75-0.75s0.34-0.75 0.75-0.75h2c0.41 0 0.75 0.34 0.75 0.75s-0.34 0.75-0.75 0.75z"/>
 <path d="m9.88 14.87c-0.19 0-0.38-0.07-0.53-0.22-0.71-0.71-1.1-1.65-1.1-2.65 0-2.07 1.68-3.75 3.75-3.75 1 0 1.94 0.39 2.65 1.1 0.29 0.29 0.29 0.77 0 1.06l-4.24 4.24c-0.15 0.15-0.34 0.22-0.53 0.22zm2.12-5.12c-1.24 0-2.25 1.01-2.25 2.25 0 0.34 0.08 0.67 0.22 0.97l3-3c-0.3-0.14-0.63-0.22-0.97-0.22z"/>
 <path d="m1.9999 22.75c-0.19 0-0.38-0.07-0.53-0.22-0.29-0.29-0.29-0.77 0-1.06l20-20c0.29-0.29 0.77-0.29 1.06 0s0.29 0.77 0 1.06l-20 20c-0.15 0.15-0.34 0.22-0.53 0.22z"/>
</svg>
